packages/storefront-lwc/src/assets/fonts/flags/1x1/bv.svg

<svg height="512" width="512" xmlns="http://www.w3.org/2000/svg" xmlns:xlink="http://www.w3.org/1999/xlink"><clipPath id="a"><path d="m0 0h512v512h-512z"/></clipPath><g clip-path="url(#a)" fill-rule="evenodd" stroke-width="1pt"><path d="m-68 0h699.74v512h-699.74z" fill="#fff"/><path d="m-92.992-77.837h218.72v276.26h-218.72zm342.412 77.265h380.91v199h-380.91zm-316.965 320.582h190.33v190.33h-190.33zm319.545 2.11h378.34v188.21h-378.34z" fill="#d72828"/><g fill="#003897"><path d="m156.65-25.447h64.425v535.78h-64.425z"/><path d="m-67.545 224.84h697.88v63.444h-697.88z"/></g></g></svg>

<svg xmlns="http://www.w3.org/2000/svg" height="512" width="512" id="flag-icon-css-bv">
  <defs>
    <clipPath id="a">
      <path fill-opacity=".67" d="M0 0h512v512H0z"/>
    </clipPath>
  </defs>
  <g fill-rule="evenodd" stroke-width="1pt" clip-path="url(#a)">
    <path fill="#fff" d="M-68 0h699.74v512H-68z"/>
    <path fill="#d72828" d="M-92.992-77.837h218.72v276.26h-218.72zM249.42-.572h380.91v199H249.42zM-67.545 320.01h190.33v190.33h-190.33zM252 322.12h378.34v188.21H252z"/>
    <path fill="#003897" d="M156.65-25.447h64.425v535.78H156.65z"/>
    <path fill="#003897" d="M-67.545 224.84h697.88v63.444h-697.88z"/>
  </g>
</svg>
